X:664
T:Mary Young and Fair
T:Mairi Bhan Og
B:West Edinburgh Folk Group (1997)
Z:Nigel Gatherer
L:1/8
M:6/8
K:Em
B,   | E>FE G2A | B2G A>GF | B2E E>FE | D3 z2
B,   | E>FE G2A | B2G ABd  | B2G AGF  | E3 z2 :|
B/d/ | e>fe d2c | B2G ABd  | B2E E>FE | D3 z2
B,   | E>FE G2A | B2G edc  | B2G AGF  | E3 z2 
B/d/ | e>fe d2c | B2G ABd  | B2E E>FE | D3 z2
B,   | G>FG A>GA |
M:9/8
B>AB g3-g2 f/e/ |
M:6/8
B2G A>GF | E3-E2 |]
<end>
<start>
